X:25
T:Hooper's Jigg. Ru1.105
%%VWML:RutherfordVol1-2248-p53-0p53
Z:Transcription by Village Music Project, Steve Mansfield July 2015
F:http://www.village-music-project.org.uk/
F:http://www.vwml.org/record/RutherfordVol1/2248/p53
L:1/8
Q:1/4=100
R:Jigg
K:Gm
D|(GB/c/)d dBG|(FA/B/)c cAF|G(B/c/d) g(=e/f/g)|d(B/c/d) cBA|
G(B/c/d) dBG|F(A/B/c) cAF|GBd gfd|cBAG2:|
|:A|B2B BfB|BfB AGF|G2g gba|gba "tr"g3|
bag fed|cdB AGF|GBd gba|gdBG2:|
W:The first Couple Clap & cast off & Hands across
W:with the 3d. Cu. .| Clap & cast up & Hands across
W:with the 2d. Cu. :| Cross over figure In .|.
W:Right Hand & Left :|
|:
T:Cream Cheese. Ru1.106
B:Rutherford's Country Dances Vol 1, 1756
Z:village music project, Ruairidh Greig July 2015
M:6/8
L:1/8
Q:1/4=100
K:Ador
g3 dBd|gdB GBd|g3dBd|acA AcA|
g3dBd|gfe dcB|cac BgB|acA ABA:|
|:GAB gdB|gdB gdB|GAB gdB|acA acA|
GAB gdB|gba gfe|dgd cac|BgB ABA:|
W:The first Man sets to his Partner & turn the 3d.
W:Wo. .| The first Wo. sets to the 2d. Man & turns
W:the 3d. Man :| whole figure at Top .|. Lead
W:through the 3d. Cu. & turn your Partner :|
|:
